X: 2
T: Hair Fell Off My Coconut, The
T: Hundred Pipers, A
M: 12/8
L: 1/8
K: AMaj
|: AB |\
c2 E E^DE F2 A A2 f | e2 c cBA c2 B B^AB |
c2 E E^DE F2 A A2 f | e2 c BcB  A3- A  :|
|: AB |\
c2 e ece f2 a a2 f | e2 c- cBA c2 B B^AB | 
cee ec/d/e faa agf | ecc B^AB =A2 G A- :|
